svg/plus_lock.svg

<svg xmlns="http://www.w3.org/2000/svg" viewBox="0 0 24 24"><path d="M21.14 17.67v-.45C21.14 16 20.2 15 19 15s-2.14 1-2.14 2.22v.45c-.52 0-.86.33-.86.89v3.55c0 .54.34.89.86.89h4.28c.52 0 .86-.35.86-.89v-3.56c0-.55-.34-.88-.86-.88m-.85 0h-2.57v-.45c0-.72.59-1.33 1.28-1.33s1.29.61 1.29 1.33zM11 5v6H5v2h6v6h2v-6h6v-2h-6V5z"/></svg>

<svg xmlns="http://www.w3.org/2000/svg" id="mdi-plus-lock" viewBox="0 0 24 24"><path d="M21.14 17.67V17.22C21.14 16 20.2 15 19 15S16.86 16 16.86 17.22V17.67C16.34 17.67 16 18 16 18.56V22.11C16 22.65 16.34 23 16.86 23H21.14C21.66 23 22 22.65 22 22.11V18.55C22 18 21.66 17.67 21.14 17.67M20.29 17.67H17.72V17.22C17.72 16.5 18.31 15.89 19 15.89C19.69 15.89 20.29 16.5 20.29 17.22V17.67M11 5V11H5V13H11V19H13V13H19V11H13V5H11Z" /></svg>
